assets/svg/categories_other.svg

<svg width="48" height="48" viewBox="0 0 48 48" fill="none" xmlns="http://www.w3.org/2000/svg">
<path d="M45.8454 22.943L39.8754 19.5352L32.2535 23.8552C32.2591 23.858 32.2657 23.8598 32.2723 23.8636L36.7966 26.4464C36.9541 26.5364 37.0085 26.737 36.9185 26.8936C36.8898 26.9439 36.8483 26.9857 36.7983 27.0148C36.7482 27.0439 36.6914 27.0594 36.6335 27.0595C36.5782 27.0595 36.5229 27.0455 36.4713 27.0164L31.947 24.4336C31.8928 24.4028 31.8487 24.3571 31.8197 24.3019C31.7908 24.2467 31.7784 24.1844 31.7838 24.1223L24.9598 27.9905C24.3645 28.328 23.6351 28.328 23.0398 27.9905L16.2204 24.1252C16.2279 24.2461 16.1698 24.367 16.0573 24.4317L11.5282 27.0173C11.4766 27.0464 11.4213 27.0605 11.366 27.0605C11.2516 27.0605 11.141 27.0014 11.081 26.8945C11.0379 26.8191 11.0265 26.7296 11.0494 26.6457C11.0722 26.5619 11.1274 26.4905 11.2029 26.4473L15.732 23.8617C15.7366 23.8589 15.7413 23.858 15.7451 23.8561L8.12414 19.5361L2.15414 22.9439C1.28039 23.4427 1.28227 24.7036 2.15789 25.2005L22.8579 36.9333C23.5657 37.3345 24.4329 37.3345 25.1407 36.9333L45.8407 25.2005C46.7173 24.7027 46.7191 23.4417 45.8454 22.943Z" fill="#0166FF"/>
<path d="M11.9312 17.6902C11.8169 17.6902 11.7063 17.6311 11.6463 17.5242C11.6031 17.4488 11.5918 17.3593 11.6146 17.2754C11.6375 17.1915 11.6927 17.1202 11.7681 17.077L17.1334 14.0142C17.2087 13.9736 17.2969 13.9641 17.3791 13.9876C17.4614 14.0111 17.5312 14.0658 17.5736 14.1401C17.6161 14.2143 17.6278 14.3023 17.6064 14.3851C17.5849 14.4679 17.5319 14.539 17.4587 14.5833L12.0934 17.647C12.0419 17.6761 11.9866 17.6902 11.9312 17.6902ZM36.0681 17.6902C36.0128 17.6902 35.9575 17.6761 35.9059 17.647L30.5406 14.5842C30.5032 14.5629 30.4704 14.5344 30.444 14.5004C30.4177 14.4663 30.3983 14.4274 30.387 14.3859C30.3756 14.3444 30.3726 14.301 30.3781 14.2583C30.3835 14.2156 30.3974 14.1744 30.4187 14.137C30.5087 13.9795 30.7094 13.9252 30.8669 14.0152L36.2322 17.078C36.3897 17.168 36.4441 17.3686 36.3541 17.5252C36.3252 17.5754 36.2835 17.6172 36.2333 17.6461C36.1831 17.6751 36.1261 17.6903 36.0681 17.6902ZM27.3887 12.7355C27.3334 12.7355 27.2781 12.7214 27.2266 12.6923L24.8022 11.3086C24.5575 11.1699 24.281 11.097 23.9997 11.097C23.7184 11.097 23.4419 11.1699 23.1972 11.3086L20.7728 12.6923C20.6975 12.7329 20.6093 12.7425 20.5271 12.719C20.4449 12.6955 20.3751 12.6407 20.3326 12.5665C20.2902 12.4922 20.2784 12.4043 20.2999 12.3215C20.3213 12.2387 20.3743 12.1676 20.4475 12.1233L22.8719 10.7395C23.5675 10.342 24.4319 10.342 25.1275 10.7395L27.5519 12.1233C27.7094 12.2133 27.7637 12.4139 27.6737 12.5705C27.6451 12.6207 27.6036 12.6624 27.5535 12.6914C27.5035 12.7204 27.4466 12.7356 27.3887 12.7355ZM40.2259 37.4283C40.2259 36.7617 39.5078 36.3436 38.9275 36.6717L24.5012 44.8486C24.1919 45.0239 23.8075 45.0239 23.4981 44.8486L9.07187 36.6717C8.4925 36.3436 7.77344 36.7617 7.77344 37.4283L22.8578 45.9783C23.5656 46.3795 24.4328 46.3795 25.1406 45.9783L40.2259 37.4283Z" fill="#EBECED"/>
<path d="M1.99594 16.4386L22.8778 28.2745C23.2238 28.4705 23.6119 28.5689 24 28.5689C24.3881 28.5689 24.7763 28.4705 25.1222 28.2745L46.0041 16.4386C46.5197 16.147 46.8272 15.6183 46.8281 15.0267C46.8291 14.4352 46.5225 13.9055 46.0078 13.612L25.1278 1.69266C24.4322 1.29516 23.5678 1.29516 22.8722 1.69266L20.5828 2.99953C20.4253 3.08953 20.3709 3.29016 20.4609 3.44672C20.5509 3.60422 20.7516 3.65859 20.9081 3.56859L23.1975 2.26172C23.4422 2.123 23.7187 2.05008 24 2.05008C24.2813 2.05008 24.5578 2.123 24.8025 2.26172L45.6825 14.1811C45.9891 14.3564 46.1719 14.6714 46.1719 15.0248C46.1719 15.3783 45.9872 15.6933 45.6806 15.8667L24.7978 27.7036C24.3056 27.983 23.6934 27.983 23.2013 27.7036L2.31938 15.8677C2.01188 15.6933 1.82813 15.3783 1.82813 15.0258C1.82719 14.6723 2.01 14.3573 2.3175 14.182L19.0678 4.61953C19.2253 4.52953 19.2797 4.32891 19.1897 4.17234C19.1684 4.13495 19.1399 4.10213 19.1058 4.07577C19.0718 4.0494 19.0329 4.03 18.9914 4.01868C18.9498 4.00736 18.9065 4.00434 18.8638 4.0098C18.8211 4.01525 18.7799 4.02907 18.7425 4.05047L1.99219 13.612C1.4775 13.9055 1.17094 14.4342 1.17188 15.0267C1.17281 15.6192 1.48125 16.147 1.99594 16.4386ZM46.0078 31.7039L41.5425 29.1548C41.385 29.0648 41.1844 29.1192 41.0944 29.2767C41.0044 29.4342 41.0597 29.6348 41.2163 29.7239L45.6816 32.273C45.9881 32.4483 46.1709 32.7633 46.1709 33.1167C46.1709 33.4702 45.9863 33.7852 45.6797 33.9586L24.9797 45.6914C24.375 46.0345 23.6241 46.0336 23.0203 45.6914L2.31938 33.9605C2.01188 33.7861 1.82813 33.4711 1.82813 33.1186C1.82719 32.7652 2.01 32.4502 2.3175 32.2748L6.65438 29.7989C6.81188 29.7089 6.86625 29.5083 6.77625 29.3517C6.75492 29.3143 6.72642 29.2815 6.69239 29.2551C6.65836 29.2288 6.61946 29.2094 6.57793 29.1981C6.53639 29.1867 6.49304 29.1837 6.45033 29.1892C6.40763 29.1946 6.36642 29.2084 6.32906 29.2298L1.99219 31.7058C1.4775 31.9992 1.17094 32.528 1.17188 33.1205C1.17281 33.713 1.48125 34.2408 1.99594 34.5323L22.6959 46.2652C23.0981 46.493 23.5491 46.6073 23.9991 46.6073C24.4491 46.6073 24.9009 46.493 25.3022 46.2652L46.0022 34.5323C46.5178 34.2408 46.8253 33.712 46.8263 33.1205C46.8291 32.527 46.5225 31.9973 46.0078 31.7039Z" fill="#9A9A9A"/>
<path d="M6.87321 9.80865C6.81696 9.80865 6.75883 9.79365 6.70633 9.76271L4.60446 8.52146C4.56736 8.49958 4.53495 8.4706 4.50907 8.43618C4.48319 8.40176 4.46436 8.36257 4.45365 8.32085C4.44294 8.27914 4.44056 8.23572 4.44665 8.19309C4.45274 8.15046 4.46718 8.10945 4.48915 8.0724C4.51102 8.03531 4.54001 8.00289 4.57443 7.97702C4.60885 7.95114 4.64804 7.9323 4.68976 7.92159C4.73147 7.91088 4.77488 7.9085 4.81752 7.9146C4.86015 7.92069 4.90116 7.93513 4.93821 7.95709L7.04008 9.19834C7.19571 9.29021 7.24821 9.49178 7.1554 9.6474C7.12647 9.69652 7.08522 9.73724 7.03573 9.76552C6.98623 9.7938 6.93021 9.80867 6.87321 9.80865ZM13.1732 5.86553C13.0101 5.86553 12.8685 5.74365 12.8479 5.57678L12.5516 3.15334C12.5301 2.97334 12.6576 2.81021 12.8376 2.78771C13.0176 2.76521 13.1807 2.89365 13.2032 3.07365L13.4995 5.49709C13.5099 5.58347 13.4857 5.67046 13.4321 5.739C13.3785 5.80754 13.2999 5.85203 13.2135 5.86271C13.1995 5.86459 13.1863 5.86553 13.1732 5.86553ZM41.1276 9.80865C41.0556 9.80881 40.9856 9.7853 40.9283 9.74173C40.871 9.69817 40.8297 9.63698 40.8106 9.56759C40.7915 9.4982 40.7958 9.42446 40.8227 9.35773C40.8497 9.29101 40.8978 9.235 40.9598 9.19834L43.0616 7.95709C43.2173 7.86521 43.4188 7.91678 43.5107 8.0724C43.6026 8.22803 43.551 8.42959 43.3954 8.52146L41.2935 9.76271C41.242 9.79365 41.1838 9.80865 41.1276 9.80865ZM34.8276 5.86553C34.8145 5.86553 34.8004 5.86459 34.7873 5.86271C34.7445 5.85749 34.7031 5.84389 34.6656 5.82269C34.6281 5.80149 34.5951 5.7731 34.5686 5.73914C34.542 5.70519 34.5224 5.66634 34.5109 5.6248C34.4993 5.58327 34.4961 5.53987 34.5013 5.49709L34.7976 3.07365C34.8191 2.89365 34.9851 2.76615 35.1632 2.78771C35.206 2.79294 35.2473 2.80654 35.2849 2.82774C35.3224 2.84894 35.3554 2.87733 35.3819 2.91129C35.4085 2.94524 35.4281 2.98409 35.4396 3.02563C35.4512 3.06716 35.4544 3.11056 35.4491 3.15334L35.1529 5.57678C35.1432 5.65629 35.1048 5.72951 35.0449 5.78268C34.985 5.83586 34.9077 5.86532 34.8276 5.86553Z" fill="#0166FF"/>
</svg>

<svg xmlns="http://www.w3.org/2000/svg" width="48" height="48" fill="none"><path fill="#0166FF" d="m45.845 22.943-5.97-3.408-7.621 4.32.018.009 4.525 2.582a.327.327 0 1 1-.326.57l-4.524-2.582a.33.33 0 0 1-.163-.312l-6.824 3.869a1.95 1.95 0 0 1-1.92 0l-6.82-3.866a.33.33 0 0 1-.163.307l-4.529 2.585a.328.328 0 1 1-.325-.57l4.529-2.585.013-.006-7.62-4.32-5.97 3.408a1.298 1.298 0 0 0 .003 2.257l20.7 11.732a2.32 2.32 0 0 0 2.283 0l20.7-11.732a1.299 1.299 0 0 0 .004-2.258"/><path fill="#EBECED" d="M11.931 17.69a.328.328 0 0 1-.163-.613l5.365-3.063a.328.328 0 0 1 .326.57l-5.366 3.063a.33.33 0 0 1-.162.043m24.137 0a.33.33 0 0 1-.162-.043l-5.365-3.063a.328.328 0 1 1 .326-.569l5.365 3.063a.327.327 0 0 1-.164.612m-8.68-4.955a.33.33 0 0 1-.161-.043l-2.425-1.383a1.63 1.63 0 0 0-1.605 0l-2.424 1.383a.328.328 0 0 1-.325-.569l2.424-1.383a2.28 2.28 0 0 1 2.256 0l2.424 1.383a.327.327 0 0 1-.163.613m12.838 24.693a.87.87 0 0 0-1.298-.756L24.5 44.849c-.31.175-.694.175-1.003 0L9.072 36.672a.87.87 0 0 0-1.299.756l15.085 8.55a2.32 2.32 0 0 0 2.283 0z"/><path fill="#9A9A9A" d="m1.996 16.439 20.882 11.836a2.28 2.28 0 0 0 2.244 0l20.882-11.836c.516-.292.823-.82.824-1.412a1.61 1.61 0 0 0-.82-1.415l-20.88-11.92a2.28 2.28 0 0 0-2.256 0L20.582 3a.327.327 0 1 0 .326.569l2.29-1.307a1.63 1.63 0 0 1 1.604 0l20.88 11.92a.96.96 0 0 1 .49.843.96.96 0 0 1-.491.842L24.798 27.704c-.492.279-1.105.279-1.597 0L2.32 15.868a.96.96 0 0 1-.49-.842c-.002-.354.181-.669.488-.844l16.75-9.562a.327.327 0 1 0-.325-.57l-16.75 9.562a1.61 1.61 0 0 0-.82 1.415c0 .592.31 1.12.824 1.412m44.012 15.265-4.466-2.55a.328.328 0 0 0-.326.57l4.466 2.549a.96.96 0 0 1 .489.844.96.96 0 0 1-.491.842L24.98 45.69a2 2 0 0 1-1.96 0l-20.7-11.73a.96.96 0 0 1-.492-.842c0-.354.182-.669.49-.844l4.336-2.476a.327.327 0 1 0-.325-.57l-4.337 2.477a1.61 1.61 0 0 0-.82 1.415c0 .592.31 1.12.824 1.411l20.7 11.733a2.65 2.65 0 0 0 2.606 0l20.7-11.733c.516-.291.823-.82.824-1.411a1.6 1.6 0 0 0-.818-1.417"/><path fill="#0166FF" d="M6.873 9.809a.33.33 0 0 1-.167-.046L4.604 8.52a.327.327 0 1 1 .334-.564L7.04 9.198a.327.327 0 0 1-.167.61m6.3-3.943a.33.33 0 0 1-.325-.29l-.296-2.423a.329.329 0 0 1 .651-.08l.297 2.424a.33.33 0 0 1-.327.369m27.955 3.943a.328.328 0 0 1-.168-.61l2.102-1.242a.328.328 0 0 1 .333.564l-2.102 1.242a.3.3 0 0 1-.165.046m-6.3-3.943-.04-.003a.33.33 0 0 1-.287-.366l.297-2.423a.33.33 0 0 1 .642-.048.3.3 0 0 1 .01.127l-.297 2.424a.33.33 0 0 1-.325.289"/></svg>
